X:1
T:Sonatina #4 (Rondo in B flat Major)
T:Sonatina #4 (Rondo in B flat Major)
T:From 6 Sonatinas
T:Ignace Joseph Pleyel
T:Public Domain (PianoXML typeset)
C:Ignace Joseph Pleyel
Z:Public Domain (PianoXML typeset)
%%score { 1 | ( 2 3 ) }
L:1/8
Q:1/4=105
M:2/4
K:Bb
V:1 treble nm="Piano" snm="Pno."
V:2 treble 
V:3 treble 
V:1
!p!"^Allegro grazioso" B/c/d/e/ f/d/e/g/ | fd B2 | A/B/c/d/ e/c/d/B/ | cA F2 | %4
!f! (B/c/d/e/ f/d/e/g/ | fb d'2) | (c'/d'/e'/c'/ a/b/c'/a/ | .b)!f!.[fd'] .[db] z :: %8
!p! (b/a/b/f/) .d.d | (f/=e/f/d/) .B.B | (A/B/c/d/ e/c/B/A/) | (B/A/B/d/ f2) | %12
"_cresc." (b/a/b/g/) =ee | (c'/=b/c'/a/) ff |!>(! (g/a/b/g/ =e/f/g/e/)!>)! | %15
!p! (f/=e/f/e/) (f/e/f/e/) | (f/=e/f/e/) (f/e/f/e/) |!<(! (f/=e/f/e/ f/e/f/e/ | %18
 f/=e/f/e/ f/e/f/e/!<)! | f/!>(!=e/f/e/ f/e/f/e/ | f/=e/f/g/ f/_e/d/c/!>)! |!p! B/c/d/e/ f/d/e/g/ | %22
 fd B2) | (A/B/c/d/ e/c/d/B/ | .cA F2) | (B/c/d/e/ f/d/e/g/ | fb d'2) | (c'/d'/e'/c'/ a/b/c'/a/ | %28
 .b).[fd'] .[db] z :| %29
V:2
 z [DF][DF][EG] | z [DF][DF][DF] |[K:bass] z [A,C][A,C][B,D] | z [A,C][A,C][A,C] | %4
 z [D,F,][D,F,][E,G,] | z [D,F,][D,F,][D,F,] | (E,C,F,F,,) | B,,2- B,, z :: %8
[K:treble] (B,/F/D/F/ B,/F/D/F/) | (B,/F/D/F/ B,/F/D/F/) | (C/F/E/F/ C/F/E/F/) | %11
 (B,/F/D/F/ B,/F/D/F/) |[K:bass] (G,/C/B,/C/ G,/C/B,/C/) | (F,/C/A,/C/ F,/C/A,/C/) | .B,.G,.C.C, | %15
 F,2 z [F,A,] | [A,C][A,C][B,D][B,D] |[K:treble] [CE]2 z .[FA] | .[Ac].[Ac].[Bd][Bd] | .[ce]2 z2 | %20
[K:bass] x4 |[K:treble] z [DF][DF][EG] | z [DF][DF][DF] |[K:bass] z [A,C][A,C][B,D] | %24
 z [A,C][A,C][A,C] | z [D,F,][D,F,][E,G,] | z [D,F,][D,F,][D,F,] | (E,C,F,F,,) | B,,2- B,, z :| %29
V:3
 B,4 | !tenuto!B,4 |[K:bass] F,4 | F,4 | B,,4 | B,,4 | x4 | x4 ::[K:treble] x4 | x4 | x4 | x4 | %12
[K:bass] x4 | x4 | x4 | x4 | x4 |[K:treble] x4 | x4 | x4 |[K:bass] x4 |[K:treble] B,4 | B,4 | %23
[K:bass] F,4 | F,4 | B,,4 | B,,4 | x4 | x4 :| %29

